X: 13077
T: Fintan Cleary's
R: hornpipe
M: 4/4
K: Dmajor
|:AG|FEDF Adfd|ed c/d/e dAFA|G/B/G EG F/A/F DF|EAed cAGE|
FEDF Adfd|ed c/d/e dAFA|G/B/G EG FAdB|A/B/A G/F/E D2:|
de|fedf ec A/B/c|d/c/d c/d/e dAFA|GBeG FAdA|^GBed cAde|
[1 fedf ec A/B/c|d2 ce dAFA|GBed cAGE|D/E/D CE D2:|
[2 fa a/^g/a ea a/^g/a|d/c/d ce dAFA|GBed cAGE|D/E/D CE D2||

